art/tg16.svg

<?xml version="1.0" encoding="utf-8"?>
<!-- Generator: Adobe Illustrator 16.0.3, SVG Export Plug-In . SVG Version: 6.00 Build 0)  -->
<!DOCTYPE svg PUBLIC "-//W3C//DTD SVG 1.1//EN" "http://www.w3.org/Graphics/SVG/1.1/DTD/svg11.dtd">
<svg version="1.1" id="Ebene_1" xmlns="http://www.w3.org/2000/svg" xmlns:xlink="http://www.w3.org/1999/xlink" x="0px" y="0px"
	 width="566.926px" height="121.783px" viewBox="0 0 566.926 121.783" enable-background="new 0 0 566.926 121.783"
	 xml:space="preserve">
<g>
	<polygon fill="#F79226" points="0,0 28.081,0 28.081,8.264 19.862,8.264 19.862,120.425 9.929,120.425 9.929,8.264 0,8.264 	"/>
	<path fill="#F79226" d="M53.519,112.216H64.48V33.634h9.587v78.582c0,5.085-4.622,8.688-9.36,8.688H53.519
		c-5.007,0-9.474-4.075-9.474-8.791V33.634h9.474V112.216z"/>
	<path fill="#D5E14D" d="M259.674,52.827h14.642v68.155h-20.632c-4.412,0-9.846-3.377-9.846-8.5V9.457
		c0-4.328,4.535-8.937,9.629-8.937h11.259c4.994,0,9.525,4.567,9.525,8.836v24.407h-9.868V9.696H253.17v102.862h11.472V61.168
		h-4.968V52.827z"/>
	<path fill="#D5E14D" d="M401.255,79.154v41.31h-9.244V41.345c0-3.574,3.552-7.468,8.047-7.468h15.24v7.626h-14.043v29.232h11.56
		v8.458L401.255,79.154z"/>
	<path fill="#D5E14D" d="M434.045,33.899h9.703v31.512l5.479,5.509l5.363-5.356V33.899h9.586v29.982
		c0,3.661-9.47,13.306-9.47,13.306s9.586,9.639,9.586,13.546v29.905h-9.017V89.504l-5.822-5.887l-5.821,5.81v31.212h-9.587V90.805
		c0-3.668,10.155-13.694,10.155-13.694s-10.155-9.538-10.155-13.381V33.899z"/>
	<path fill="#F79226" d="M115.616,79.349c3.253,0,7.578-3.888,7.578-9.092V41.82c0-4.092-4.667-7.902-9.975-7.902H93.528v86.894
		h9.076V79.988h3.425l10.101,40.67h8.904L115.616,79.349z M113.82,70.852h-10.874V42.337h10.874V70.852z"/>
	<path fill="#D5E14D" d="M316.457,79.122c3.254,0,7.581-3.895,7.581-9.095V41.59c0-4.091-4.67-7.905-9.975-7.905h-19.69v86.9h9.069
		v-40.83h3.428l10.104,40.669h8.901L316.457,79.122z M314.529,70.528h-10.867V42.014h10.867V70.528z"/>
	<path fill="#F79226" d="M171.712,81.398c-0.042-3.894-4.107-6.358-4.107-6.358s4.107-2.658,4.107-6.353V42.16
		c0-5.007-4.408-8.264-8.901-8.264h-20.719v86.743h20.719c4.195,0,8.901-2.62,8.901-8.261
		C171.712,112.378,171.758,85.287,171.712,81.398z M162.381,112.139H151.51V79.808h10.871V112.139z M162.381,70.832H151.51V42.318
		h10.871V70.832z"/>
	<path fill="#F79226" d="M211.392,33.255h-5.479h-5.308c-5.437,0-9.396,4.648-9.396,8.183v70.447c0,4.554,5.072,8.682,9.354,8.682
		h11.728c4.58,0,9.16-4.729,9.16-8.5V41.199C221.451,38.023,217.126,33.255,211.392,33.255z M211.734,111.614h-10.502V41.836h10.502
		V111.614z"/>
	<path fill="#D5E14D" d="M363.691,33.876h-11.979c-5.396,0-8.564,4.447-8.564,7.944v78.644h9.075v-41.31h11.469v41.31h9.076V42.295
		C372.767,37.107,369.177,33.876,363.691,33.876z M363.432,70.576h-10.867v-27.96h10.867V70.576z"/>
	<g>
		<g>
			<rect x="518.902" y="79.943" fill="#F79226" width="28.094" height="10.479"/>
			<path fill="#F79226" d="M522.37,32.673c-24.607,0-44.551,19.946-44.551,44.553c0,24.607,19.943,44.557,44.551,44.557
				c24.606,0,44.557-19.949,44.557-44.557C566.926,52.62,546.976,32.673,522.37,32.673z M507.207,95.533h-14.128v-4.949h4.554
				V64.438h-4.47v-5.113h9.58V90.5h4.464V95.533z M551.867,68.824h-4.541v-4.548h-28.67v10.88h30.617l2.594,2.601v14.374
				l-3.247,3.247h-31.341l-3.248-3.247v-29.64l3.008-3.005h32.072l2.756,2.759V68.824z"/>
		</g>
	</g>
</g>
</svg>

<?xml version="1.0" standalone="no"?><!-- Generator: Gravit.io --><svg xmlns="http://www.w3.org/2000/svg" xmlns:xlink="http://www.w3.org/1999/xlink" style="isolation:isolate" viewBox="0 0 566.927 121.783" width="566.927" height="121.783"><path d=" M 0 0 L 28.081 0 L 28.081 8.264 L 19.862 8.264 L 19.862 120.425 L 9.929 120.425 L 9.929 8.264 L 0 8.264 L 0 0 Z " fill="rgb(255,255,255)"/><path d=" M 53.519 112.216 L 64.48 112.216 L 64.48 33.634 L 74.067 33.634 L 74.067 112.216 C 74.067 117.301 69.445 120.904 64.707 120.904 L 53.519 120.904 C 48.512 120.904 44.045 116.829 44.045 112.113 L 44.045 33.634 L 53.519 33.634 L 53.519 112.216 L 53.519 112.216 Z " fill="rgb(255,255,255)"/><path d=" M 259.674 52.827 L 274.316 52.827 L 274.316 120.982 L 253.684 120.982 C 249.272 120.982 243.838 117.605 243.838 112.482 L 243.838 9.457 C 243.838 5.129 248.373 0.52 253.467 0.52 L 264.726 0.52 C 269.72 0.52 274.251 5.087 274.251 9.356 L 274.251 33.763 L 264.383 33.763 L 264.383 9.696 L 253.17 9.696 L 253.17 112.558 L 264.642 112.558 L 264.642 61.168 L 259.674 61.168 L 259.674 52.827 L 259.674 52.827 Z " fill="rgb(255,255,255)"/><path d=" M 401.255 79.154 L 401.255 120.464 L 392.011 120.464 L 392.011 41.345 C 392.011 37.771 395.563 33.877 400.058 33.877 L 415.298 33.877 L 415.298 41.503 L 401.255 41.503 L 401.255 70.735 L 412.815 70.735 L 412.815 79.193 L 401.255 79.154 L 401.255 79.154 Z " fill="rgb(255,255,255)"/><path d=" M 434.045 33.899 L 443.748 33.899 L 443.748 65.411 L 449.227 70.92 L 454.59 65.564 L 454.59 33.899 L 464.176 33.899 L 464.176 63.881 C 464.176 67.542 454.706 77.187 454.706 77.187 C 454.706 77.187 464.292 86.826 464.292 90.733 L 464.292 120.638 L 455.275 120.638 L 455.275 89.504 L 449.453 83.617 L 443.632 89.427 L 443.632 120.639 L 434.045 120.639 L 434.045 90.805 C 434.045 87.137 444.2 77.111 444.2 77.111 C 444.2 77.111 434.045 67.573 434.045 63.73 L 434.045 33.899 L 434.045 33.899 Z " fill="rgb(255,255,255)"/><path d=" M 115.616 79.349 C 118.869 79.349 123.194 75.461 123.194 70.257 L 123.194 41.82 C 123.194 37.728 118.527 33.918 113.219 33.918 L 93.528 33.918 L 93.528 120.812 L 102.604 120.812 L 102.604 79.988 L 106.029 79.988 L 116.13 120.658 L 125.034 120.658 L 115.616 79.349 L 115.616 79.349 Z  M 113.82 70.852 L 102.946 70.852 L 102.946 42.337 L 113.82 42.337 L 113.82 70.852 L 113.82 70.852 Z " fill="rgb(255,255,255)"/><path d=" M 316.457 79.122 C 319.711 79.122 324.038 75.227 324.038 70.027 L 324.038 41.59 C 324.038 37.499 319.368 33.685 314.063 33.685 L 294.373 33.685 L 294.373 120.585 L 303.442 120.585 L 303.442 79.755 L 306.87 79.755 L 316.974 120.424 L 325.875 120.424 L 316.457 79.122 L 316.457 79.122 Z  M 314.529 70.528 L 303.662 70.528 L 303.662 42.014 L 314.529 42.014 L 314.529 70.528 L 314.529 70.528 Z " fill="rgb(255,255,255)"/><path d=" M 171.712 81.398 C 171.67 77.504 167.605 75.04 167.605 75.04 C 167.605 75.04 171.712 72.382 171.712 68.687 L 171.712 42.16 C 171.712 37.153 167.304 33.896 162.811 33.896 L 142.092 33.896 L 142.092 120.639 L 162.811 120.639 C 167.006 120.639 171.712 118.019 171.712 112.378 C 171.712 112.378 171.758 85.287 171.712 81.398 Z  M 162.381 112.139 L 151.51 112.139 L 151.51 79.808 L 162.381 79.808 L 162.381 112.139 L 162.381 112.139 Z  M 162.381 70.832 L 151.51 70.832 L 151.51 42.318 L 162.381 42.318 L 162.381 70.832 L 162.381 70.832 Z " fill="rgb(255,255,255)"/><path d=" M 211.392 33.255 L 205.913 33.255 L 200.605 33.255 C 195.168 33.255 191.209 37.903 191.209 41.438 L 191.209 111.885 C 191.209 116.439 196.281 120.567 200.563 120.567 L 212.291 120.567 C 216.871 120.567 221.451 115.838 221.451 112.067 L 221.451 41.199 C 221.451 38.023 217.126 33.255 211.392 33.255 Z  M 211.734 111.614 L 201.232 111.614 L 201.232 41.836 L 211.734 41.836 L 211.734 111.614 L 211.734 111.614 Z " fill="rgb(255,255,255)"/><path d=" M 363.691 33.876 L 351.712 33.876 C 346.316 33.876 343.148 38.323 343.148 41.82 L 343.148 120.464 L 352.223 120.464 L 352.223 79.154 L 363.692 79.154 L 363.692 120.464 L 372.768 120.464 L 372.768 42.295 C 372.767 37.107 369.177 33.876 363.691 33.876 Z  M 363.432 70.576 L 352.565 70.576 L 352.565 42.616 L 363.432 42.616 L 363.432 70.576 L 363.432 70.576 Z " fill="rgb(255,255,255)"/><g id="null"><g id="null"><rect x="518.902" y="79.943" width="28.094" height="10.479" transform="matrix(1,0,0,1,0,0)" fill="rgb(255,255,255)"/><path d=" M 522.37 32.673 C 497.763 32.673 477.819 52.619 477.819 77.226 C 477.819 101.833 497.762 121.783 522.37 121.783 C 546.976 121.783 566.927 101.834 566.927 77.226 C 566.926 52.62 546.976 32.673 522.37 32.673 Z  M 507.207 95.533 L 493.079 95.533 L 493.079 90.584 L 497.633 90.584 L 497.633 64.438 L 493.163 64.438 L 493.163 59.325 L 502.743 59.325 L 502.743 90.5 L 507.207 90.5 L 507.207 95.533 L 507.207 95.533 Z  M 551.867 68.824 L 547.326 68.824 L 547.326 64.276 L 518.656 64.276 L 518.656 75.156 L 549.273 75.156 L 551.867 77.757 L 551.867 92.131 L 548.62 95.378 L 517.279 95.378 L 514.031 92.131 L 514.031 62.491 L 517.039 59.486 L 549.111 59.486 L 551.867 62.245 L 551.867 68.824 L 551.867 68.824 Z " fill="rgb(255,255,255)"/></g></g></svg>
